X: 37
T:Blarney Pilgrim, The
M:6/8
L:1/8
R:jig
K:G
DED DEG|A2 G ABc|BAG AGE|G2 A GED|DED DEG|A2 G ABc|BAG AGE|GED D3  :|
|:ded dBG|AGA BGE|ded dBG|ABA GBd|g2 e dBG|AGA BGE|B2 G AGE|GED D3  :|
|:ADD BDD|ADD ABc|BAG AGE|G2 A GED|ADD BDD|ADD ABc|BAG AGE|GED D3  :|
